X:1
T:Keep the Banner Flying
T:Robert Lowry
T:Keep the Banner Flying
T:Public Domain
T:Public Domain
T:Public Domain
C:Robert Lowry
Z:Public Domain
%%score ( 1 2 ) 3
L:1/8
M:6/8
K:Eb
V:1 treble 
V:2 treble 
V:3 bass 
V:1
 [EG]2 [EG] [EG]2 [EG] | [EG]3 [EB]3 | E2 E [DF]2 [DF] | [EG]6 | [DF]2 [DF] [DF]2 [DF] | %5
w: 1.~Keep the ban- ner|fly- ing,|This your cry should|ny|souls are dy- ing,|
w: 2.~Keep the ban- ner|fly- ing;|When the faith- ful|not|up to sigh- ing,|
w: 3.~Keep the ban- ner|fly- ing;|Christ- ians should a-|each|o- ther vy- ing,|
w: 4.~Keep the ban- ner|fly- ing,|O- ver land and|your-|self de- ny- ing|
 [DF]3 [FB]3 | [E=A]2 [DB] [Ec]2 [Fd] | [DB]6 | [EG]2 [EG] [GB]2 [GB] | [Ge]3 [EB]3 | %10
w: Je- sus|must they see; Un-|der|con- dem- na- tion,|Life will|
w: Christ is|all in all; Ral-|ly|all your forc- es,|See, the|
w: Yet in|har- mo- ny; Work-|ing|still for Je- sus,|Right- ing|
w: Comes the|vic- to- ry; Bright-|en|toil with sing- ing,|Bet- ter|
 [=Ec]2 [GB] [FA]2 [EG] | [FA]6 | [Fd]2 [Ac] [GB]2 [FA] | [EG]2 [GB] [Ac]2 [FA] | [EG]3 [DF]3 | %15
w: soon be gone; On-|ly|is sal- va- tion|In the Sin- less|One. *|
w: Cap- tain’s near; Trust|to|His re- sourc- es,|There is naught to|fear. Shout,|
w: hu- man wrong, Till|the|an- gels greet us|With their wel- come|song. *|
w: days will come; To|the|Sav- ior cling- ing,|You shall rest at|home. *|
 E6 ||"^Refrain" [EB]3 [EG]2 [GB] | [Ac] [Ac]2 [Ac]3 | [GB]3 [EG]2 E | [EG]3 [DF]3 | %20
w: |||||
w: shout|bat- tle cry,|Girt with en-|dea- vor; Lift,|the ban-|
w: |||||
w: |||||
 [EG]3 [GB]2 [GB] | [Ac] [Ae]2 [Ge]3 | [Fd]3 [Fe]2 [Fd] | [Ec]3 [DB]3 | [EB]3 [EG]2 [GB] | %25
w: |||||
w: ner high, Now|and for- ev-|er; Shout, shout|the bat-|tle cry, Girt|
w: |||||
w: |||||
 [Ac] [Ac]2 [Ac]3 | [GB]3 [EG]2 E | [EG]3 [DF]3 | [EG]3 [GB]2 [GB] | [Ge] [GB]2 [Ac]3 | %30
w: |||||
w: with en- dea-|vor; Lift, lift|ban- ner|high, Now and|for- ev- er.|
w: |||||
w: |||||
 [GB]3 [EG]2 E | [DF]3 E3 |] %32
w: ||
w: ||
w: ||
w: ||
V:2
 x6 | x6 | E2 E x3 | x6 | x6 | x6 | x6 | x6 | x6 | x6 | x6 | x6 | x6 | x6 | x6 | E6 || x6 | x6 | %18
w: ||be, Ma-||||||||||||||||
w: ||fall, Give|||||||||||||the|||
w: ||gree, With||||||||||||||||
w: ||sea; By||||||||||||||||
 x5 E | x6 | x6 | x6 | x6 | x6 | x6 | x6 | x5 E | x6 | x6 | x6 | x5 E | x3 E3 |] %32
w: ||||||||||||||
w: lift||||||||the||||||
w: ||||||||||||||
w: ||||||||||||||
V:3
 [E,B,]2 [E,B,] [E,B,]2 [E,B,] | [E,B,]3 [E,G,]3 | [G,B,]2 [G,B,] [F,B,]2 [F,B,] | [E,B,]6 | %4
 [B,,B,]2 [B,,B,] [B,,B,]2 [B,,B,] | [B,,B,]3 [B,,D]3 | [F,C]2 [F,B,] [F,=A,]2 [F,A,] | [B,,B,]6 | %8
 [E,B,]2 [E,B,] [E,E]2 [E,E] | [E,B,]3 [E,G,]3 | [C,G,]2 [C,G,] [C,C]2 [C,C] | [F,C]6 | %12
 [B,,B,]2 [B,,B,] [B,,B,]2 [B,,B,] | [E,B,]2 [E,E] [A,,E]2 [A,,C] | [B,,B,]3 [B,,A,]3 | [E,G,]6 || %16
 [E,G,]3 [E,B,]2 [E,E] | [A,E] [A,E]2 [A,E]3 | [E,E]3 [E,B,]2 [E,G,] | [B,,B,]3 [B,,B,]3 | %20
 [E,B,]3 [E,E]2 [E,E] | [A,E] [A,C]2 [E,B,]3 | [F,B,]3 [F,C]2 [F,B,] | [F,=A,]3 [B,,B,]3 | %24
 [E,G,]3 [E,B,]2 [E,E] | [A,E] [A,E]2 [A,E]3 | [E,E]3 [E,B,]2 [E,G,] | [B,,B,]3 [B,,B,]3 | %28
 [E,B,]3 [E,E]2 [E,E] | [E,B,] [E,E]2 [A,,E]3 | [B,,E]3 [B,,B,]2 [B,,G,] | [B,,A,]3 [E,G,]3 |] %32

